dist/svgs/geomicons-open/icons/close.svg

<svg xmlns="http://www.w3.org/2000/svg" viewBox="0 0 32 32"><path d="M4 8l4-4 8 8 8-8 4 4-8 8 8 8-4 4-8-8-8 8-4-4 8-8z"/></svg>

<svg id="close" xmlns="http://www.w3.org/2000/svg" viewBox="0 0 32 32" width="32" height="32" fill="currentcolor">
  <path d="M4 8 L8 4 L16 12 L24 4 L28 8 L20 16 L28 24 L24 28 L16 20 L8 28 L4 24 L12 16 z"></path>
</svg>
